!!!COM: Bartók, Béla
!!!OTL: Mikrokosmos (Microcosmos) for Piano
!!!OMV: 138: Bagpipe Music
!!!example: 358
!!!work: Bar-46
**kern	**kern	**dynam
*clefF4	*clefG2	*
*k[]	*k[]	*
*C:	*C:	*
*M2/4	*M2/4	*
*MM121	*MM121	*
=1	=1	=1
!	!LO:TX:a:B:t=Allegretto,	!
*^	*	*
4.G	8G	2r	mf
.	4d	.	.
[8G	8G	.	.
=2	=2	=2	=2
4G]	4d	2r	.
[4G	8GL	.	.
.	[8dJ	.	.
=3	=3	=3	=3
*	*	*^	*
8G]	8dL]	4r	4ryy	.
4.G	8GJ	.	.	.
.	4d	8r	8ryy	.
.	.	8ryy	[8a	.
=4	=4	=4	=4	=4
4.G	8G	(8ggL	2a_	.
.	4d	16ff#XL	.	.
.	.	16eeJJ	.	.
.	.	8dd'L)	.	.
[8G	8G	(8ccJ	.	.
=5	=5	=5	=5	=5
4G]	4d	8dd'L)	2a_	.
.	.	8dd'J	.	.
[4G	8GL	(20eeLL	.	.
.	.	20ffn	.	.
.	.	20ee	.	.
.	[8dJ	.	.	.
.	.	20ff	.	.
.	.	20eeJJ	.	.
=6	=6	=6	=6	=6
!!linebreak:original
8G]	8dL]	2dd)	2a]	.
4.G	8GJ	.	.	.
.	4d	.	.	.
=7	=7	=7	=7	=7
4.G	8G	(8ggL	2a	.
.	4d	16ff#XL	.	.
.	.	16eeJJ	.	.
.	.	8dd'L)	.	.
[8G	8G	(8ccJ	.	.
=8	=8	=8	=8	=8
4G]	4d	8b'L)	8b	.
.	.	8g'J	8ryy	.
.	.	.	.	.
*	*	*v	*v	*
[4G	8GL	(20aLL	.
.	.	.	.
.	.	20a	.
.	[8dJ	.	.
.	.	20b-	.
.	.	20aJJ	.
=9	=9	=9	=9
8G]	8dL]	2g)	.
4.G	8GJ	.	.
.	4d	.	.
=10	=10	=10	=10
*	*	*^	*
4.G	8G	(8dL	4ryy	.
.	4d	8gJ)	.	.
.	.	(16aLL	[4a	.
.	.	16bJ	.	.
[8G	8G	8ccJ	.	.
=11	=11	=11	=11	=11
!!linebreak:original
4G]	4d	8dd'L)	2a_	f
.	.	8dd'J	.	.
[4G	8GL	(20eeLL	.	.
.	.	20ff	.	.
.	.	20ee	.	.
.	[8dJ	.	.	.
.	.	20ff	.	.
.	.	20eeJJ	.	.
=12	=12	=12	=12	=12
8G]	8dL]	2dd)	2a]	.
4.G	8GJ	.	.	.
.	4d	.	.	.
*	*	*v	*v	*
=13	=13	=13	=13
4.G	8G	8dL	.
.	4d	(8gJ	.
.	.	16dLL	.
.	.	16gJ	.
[8G	8G	8aJ	.
=14	=14	=14	=14
4G]	4d	8b'L)	.
.	.	8b'J	.
[4G	8GL	(20aLL	.
.	.	20b-X	.
.	.	20a	.
.	[8dJ	.	.
.	.	20b-	.
.	.	20aJJ)	.
=15	=15	=15	=15
8G]	8dL]	([4g	<
4.G	8GJ	.	.
.	4D	28gLL]	.
.	.	28a	.
.	.	28b	.
.	.	28cc	.
.	.	28dd	.
.	.	28ee	.
.	.	28ffJJ)	.
=16	=16	=16	=16
*	*	*^	*
!!linebreak:original
4.GG	8GG	(8ggL	[2a	[
.	4D	16ff#XL	.	.
.	.	16eeJJ	.	.
.	.	8dd'L)	.	.
[8G	8G	(8ccJ	.	.
=17	=17	=17	=17	=17
4G]	4d	8dd'L)	2a]	.
.	.	8dd'J	.	.
4GG	8GGL	(20eeLL	.	.
.	.	20ffn	.	.
.	.	20ee	.	.
.	[8DJ	.	.	.
.	.	20ff	.	.
.	.	20eeJJ	.	.
=18	=18	=18	=18	=18
8GG	8DL]	2dd)	8a'L	.
4.G	8GJ	.	8a'J	.
.	4d	.	(20bLL	.
.	.	.	20cc	.
.	.	.	20b	.
.	.	.	20cc	.
.	.	.	20bJJ	.
=19	=19	=19	=19	=19
4.GG	8GG	(8ggL	2a)	.
.	4D	16ff#XL	.	.
.	.	16eeJJ	.	.
.	.	8dd'L)	.	.
[8G	8G	(8ccJ	.	.
=20	=20	=20	=20	=20
4G]	4d	8b'L)	8b	.
.	.	8g'J	8ryy	.
.	.	.	.	.
*	*	*v	*v	*
4GG	8GGL	(20aLL	.
.	.	.	.
.	.	20a	.
.	[8DJ	.	.
.	.	20b-	.
.	.	20aJJ	.
=21	=21	=21	=21
*	*	*^	*
!!linebreak:original
8GG	8DL]	2g)	8d'L	.
4.G	8GJ	.	8d'J	.
.	4D	.	(20eLL	.
.	.	.	20f	.
.	.	.	20e	.
.	.	.	20f	.
.	.	.	20eJJ	.
=22	=22	=22	=22	=22
4.GG	8GG	(8dL	4d)	.
.	4D	8gJ)	.	.
.	.	(16aLL	[4a	.
.	.	16bJ	.	.
[8G	8G	8ccJ	.	.
=23	=23	=23	=23	=23
4G]	4d	8dd'L)	2a]	.
.	.	8dd'J	.	.
4GG	8GGL	(20eeLL	.	.
.	.	20ff	.	.
.	.	20ee	.	.
.	[8DJ	.	.	.
.	.	20ff	.	.
.	.	20eeJJ	.	.
=24	=24	=24	=24	=24
8GG	8DL]	2dd)	8a'L	.
4.G	8GJ	.	8a'J	.
.	4d	.	(20bLL	.
.	.	.	20cc	.
.	.	.	20b	.
.	.	.	20cc	.
.	.	.	20bJJ	.
=25	=25	=25	=25	=25
4.GG	8GG	(8ddL	8a)	.
.	4D	16gL	8ryy	.
.	.	16dJJ	.	.
.	.	8gL	4ryy	.
[8G	8G	8aJ	.	.
=26	=26	=26	=26	=26
4G]	4d	8b'L)	4ryy	.
.	.	8b'J	.	.
.	.	.	.	.
*	*	*v	*v	*
4GG	8GGL	(20aLL	.
.	.	.	.
.	.	20a	.
.	[8DJ	.	.
.	.	20b-	.
.	.	20aJJ	.
=27	=27	=27	=27
*	*	*^	*
8GG	8DL]	2g)	8f'L	.
4.G	8GJ	.	8f'J	.
.	4D	.	(20eLL	>
.	.	.	20f	.
.	.	.	20e	.
.	.	.	20f	.
.	.	.	20eJJ)	.
*v	*v	*	*	*
*	*v	*v	*
=	=	=
*-	*-	*-
!!!system-decoration: {(s1,s2)}
!!!CDT: 1881/03/25-1945/09/26
!!!CBL: Sînnicolau Mare (Nagyszentmiklós), Romania (Hungary)
!!!CDL: New York, United States
!!!CNT: Hungarian
!!!AGN: Instrumental; Keyboard
!!!MCN:
!!!MDT:
!!!MGN:
!!!MLC:
!!!MPD: unknown
!!!MPN: unknown
!!!ODT: 1926 (rev. 1939)
!!!PDT: 1940
!!!excerpt-start-measure: 1
!!!excerpt-end-measure: 20
!!!excerpt-start-time: 0:00
!!!excerpt-end-time: 0:25
!!!EEV: 2020/01/22
!!!ONB: Converted from MusicXML on 2020/01/22
